icon-svg/sana.svg

<svg xmlns="http://www.w3.org/2000/svg" fill="#44739e" viewBox="0 0 24 24"><path d="M13.34 1.03h-2C7.08 1.03 3.61 5.95 3.61 12c0 2.41.56 4.63 1.49 6.45h-.99c-.28 0-.5.22-.5.5v3.53c0 .28.22.5.5.5h9.23c4.26 0 7.73-4.92 7.73-10.97 0-6.06-3.46-10.98-7.73-10.98m0 20.94c-3.71 0-6.73-4.47-6.73-9.97s3.02-9.97 6.73-9.97S20.07 6.5 20.07 12s-3.02 9.97-6.73 9.97m0-18.43c-3.07 0-5.58 3.79-5.58 8.46 0 4.66 2.5 8.46 5.58 8.46s5.58-3.79 5.58-8.46c0-4.66-2.5-8.46-5.58-8.46m-.96 15.75c-2.06-.72-3.62-3.71-3.62-7.29s1.55-6.57 3.62-7.29c2.08.79 3.58 3.8 3.58 7.29.01 3.49-1.49 6.49-3.58 7.29"/></svg>

<?xml version="1.0" encoding="UTF-8"?>
<svg width="33px" height="32px" viewBox="0 0 24 24" version="1.1"  fill="#44739e" xmlns="http://www.w3.org/2000/svg" xmlns:xlink="http://www.w3.org/1999/xlink">
            <path d="M13.34,1.03h-2C7.08,1.03,3.61,5.95,3.61,12c0,2.41,0.56,4.63,1.49,6.45H4.11c-0.28,0-0.5,0.22-0.5,0.5v3.53 c0,0.28,0.22,0.5,0.5,0.5h9.23c4.26,0,7.73-4.92,7.73-10.97C21.07,5.95,17.61,1.03,13.34,1.03z M13.34,21.97 c-3.71,0-6.73-4.47-6.73-9.97s3.02-9.97,6.73-9.97c3.71,0,6.73,4.47,6.73,9.97S17.05,21.97,13.34,21.97z M13.34,3.54c-3.07,0-5.58,3.79-5.58,8.46c0,4.66,2.5,8.46,5.58,8.46s5.58-3.79,5.58-8.46 C18.92,7.34,16.42,3.54,13.34,3.54z M12.38,19.29c-2.06-0.72-3.62-3.71-3.62-7.29c0-3.58,1.55-6.57,3.62-7.29 c2.08,0.79,3.58,3.8,3.58,7.29C15.97,15.49,14.47,18.49,12.38,19.29z"/>
</svg>
